symbols/web/report_off/materialsymbolsoutlined/report_off_48px.svg

<svg xmlns="http://www.w3.org/2000/svg" height="48" width="48"><path d="M38.55 34.95 36.4 32.8l2.6-2.55v-12.5L30.25 9h-12.5l-2.6 2.55-2.1-2.1L16.5 6h15L42 16.5v15ZM25.5 21.9v-8.3h-3v5.3Zm16.2 24.65-7.35-7.35L31.5 42h-15L6 31.5v-15l2.85-2.8-7.4-7.4 2.1-2.1L43.8 44.45ZM25.8 22.2ZM17.75 39h12.5l1.95-1.9-21.3-21.3L9 17.75v12.5ZM24 33.95q-.7 0-1.225-.525-.525-.525-.525-1.225 0-.7.525-1.225.525-.525 1.225-.525.7 0 1.225.525.525.525.525 1.225 0 .7-.525 1.225-.525.525-1.225.525Zm-2.45-7.5Z"/></svg>

<svg xmlns="http://www.w3.org/2000/svg" height="48" width="48"><path d="M38.55 34.95 36.4 32.8 39 30.25V17.75L30.25 9H17.75L15.15 11.55L13.05 9.45L16.5 6H31.5L42 16.5V31.5ZM25.5 21.9V13.6H22.5V18.9ZM41.7 46.55 34.35 39.2 31.5 42H16.5L6 31.5V16.5L8.85 13.7L1.45 6.3L3.55 4.2L43.8 44.45ZM25.8 22.2ZM17.75 39H30.25L32.2 37.1L10.9 15.8L9 17.75V30.25ZM24 33.95Q23.3 33.95 22.775 33.425Q22.25 32.9 22.25 32.2Q22.25 31.5 22.775 30.975Q23.3 30.45 24 30.45Q24.7 30.45 25.225 30.975Q25.75 31.5 25.75 32.2Q25.75 32.9 25.225 33.425Q24.7 33.95 24 33.95ZM21.55 26.45Z"/></svg>
